svgs/sharp-regular/person-half-dress.svg

<svg xmlns="http://www.w3.org/2000/svg" viewBox="0 0 320 512"><!--! Font Awesome Pro 6.6.0 by @fontawesome - https://fontawesome.com License - https://fontawesome.com/license (Commercial License) Copyright 2024 Fonticons, Inc. --><path d="M154.3 .3a48 48 0 1 1 11.3 95.3A48 48 0 1 1 154.3 .3zM176 128l35.1 0 14.1 0 6.9 12.4 75.3 136 11.6 21-42 23.3-11.6-21L224 224.9 224 488l0 24-48 0 0-24 0-136s0 0 0 0l0-48s0 0 0 0l0-128s0 0 0 0l0-48zm-81.2 0l14.1 0 19.1 0 16 0 0 109.7L113.3 336l30.7 0 0 48s0 0 0 0l0 104 0 24-48 0 0-24 0-104-48 0 15-48 37-118.3L54.6 299.6 43 320.6 1 297.4l11.6-21 75.3-136L94.8 128z"/></svg>

<svg xmlns="http://www.w3.org/2000/svg" viewBox="0 0 320 512"><!--! Font Awesome Pro 6.4.2 by @fontawesome - https://fontawesome.com License - https://fontawesome.com/license (Commercial License) Copyright 2023 Fonticons, Inc. --><path d="M154.3 .3a48 48 0 1 1 11.3 95.3A48 48 0 1 1 154.3 .3zM176 128h35.1 14.1l6.9 12.4 75.3 136 11.6 21-42 23.3-11.6-21L224 224.9V488v24H176V488 352h0V304h0V176h0V128zm-81.2 0h14.1H128h16V237.7L113.3 336H144v48h0V488v24H96V488 384H48l15-48 37-118.3L54.6 299.6 43 320.6 1 297.4l11.6-21 75.3-136L94.8 128z"/></svg>
